dist/img/icons/google-play.svg

<svg width="17" height="16" viewBox="0 0 17 16" fill="none" xmlns="http://www.w3.org/2000/svg">
<path fill-rule="evenodd" clip-rule="evenodd" d="M2.04006 1.42147L8.61047 7.99195L2.03649 14.566C2.01597 14.4919 2.00488 14.413 2.00488 14.3304V1.6696C2.00488 1.58226 2.01725 1.49917 2.04006 1.42147ZM2.57691 0.853093L9.16308 7.43933L11.229 5.37341L3.29895 0.912769C3.06163 0.779277 2.80139 0.770826 2.57691 0.853093ZM11.9363 5.77129L9.71569 7.99195L11.9466 10.2229L14.553 8.75682C15.1431 8.42485 15.1431 7.57513 14.553 7.24316L11.9363 5.77129ZM11.2393 10.6208L9.16308 8.54457L2.56521 15.1425C2.79232 15.2294 3.0575 15.223 3.29895 15.0872L11.2393 10.6208Z" fill="#0B002E"/>
</svg>

<svg width="17" height="16" viewBox="0 0 17 16" fill="none" xmlns="http://www.w3.org/2000/svg"><path fill-rule="evenodd" clip-rule="evenodd" d="M2.04 1.421l6.57 6.57-6.574 6.575a.881.881 0 01-.031-.236V1.67c0-.088.012-.17.035-.249zm.537-.568L9.163 7.44l2.066-2.066-7.93-4.46a.857.857 0 00-.722-.06zm9.36 4.918L9.715 7.992l2.23 2.23 2.607-1.465a.868.868 0 000-1.514l-2.617-1.472zm-.698 4.85L9.163 8.545l-6.598 6.598a.86.86 0 00.734-.056l7.94-4.466z" fill="#0B002E"/></svg>
